X: 17
M: 2/4
L: 1/16
K: G
!segno!\
dcBc |\
dcBc d2ga | b4 agfe |\
dcBA G2FE | D4 dcBc |\
dcBc d2ga | b4 agfe |\
dcBA BAGF | HG4 :|\
|: GABc |
agfe d2c2 | Tc2B2 g4 |\
x4 e4 & g4 cBc2 | A4 agfg |\
agfg a2b^c' | d'4 agfg |\
agfg agfe | d4 :|


